images/3234865.svg

<?xml version="1.0" encoding="UTF-8"?>
<svg xmlns="http://www.w3.org/2000/svg" xmlns:xlink="http://www.w3.org/1999/xlink" width="300pt" height="300pt" viewBox="0 0 300 300" version="1.1">
<defs>
<g>
<symbol overflow="visible" id="glyph0-0">
<path style="stroke:none;" d="M 0.453125 1.59375 L 0.453125 -6.34375 L 4.953125 -6.34375 L 4.953125 1.59375 Z M 0.953125 1.09375 L 4.453125 1.09375 L 4.453125 -5.84375 L 0.953125 -5.84375 Z M 0.953125 1.09375 "/>
</symbol>
<symbol overflow="visible" id="glyph0-1">
<path style="stroke:none;" d="M 3.546875 -5.953125 C 2.898438 -5.953125 2.382812 -5.710938 2 -5.234375 C 1.625 -4.753906 1.4375 -4.101562 1.4375 -3.28125 C 1.4375 -2.445312 1.625 -1.789062 2 -1.3125 C 2.382812 -0.832031 2.898438 -0.59375 3.546875 -0.59375 C 4.191406 -0.59375 4.703125 -0.832031 5.078125 -1.3125 C 5.453125 -1.789062 5.640625 -2.445312 5.640625 -3.28125 C 5.640625 -4.101562 5.453125 -4.753906 5.078125 -5.234375 C 4.703125 -5.710938 4.191406 -5.953125 3.546875 -5.953125 Z M 3.546875 -6.6875 C 4.460938 -6.6875 5.195312 -6.375 5.75 -5.75 C 6.300781 -5.132812 6.578125 -4.3125 6.578125 -3.28125 C 6.578125 -2.238281 6.300781 -1.410156 5.75 -0.796875 C 5.195312 -0.179688 4.460938 0.125 3.546875 0.125 C 2.617188 0.125 1.878906 -0.179688 1.328125 -0.796875 C 0.773438 -1.410156 0.5 -2.238281 0.5 -3.28125 C 0.5 -4.3125 0.773438 -5.132812 1.328125 -5.75 C 1.878906 -6.375 2.617188 -6.6875 3.546875 -6.6875 Z M 3.546875 -6.6875 "/>
</symbol>
<symbol overflow="visible" id="glyph0-2">
<path style="stroke:none;" d="M 0.890625 -6.5625 L 2.078125 -6.5625 L 4.984375 -1.078125 L 4.984375 -6.5625 L 5.84375 -6.5625 L 5.84375 0 L 4.65625 0 L 1.75 -5.484375 L 1.75 0 L 0.890625 0 Z M 0.890625 -6.5625 "/>
</symbol>
<symbol overflow="visible" id="glyph0-3">
<path style="stroke:none;" d="M 0.890625 -6.5625 L 1.765625 -6.5625 L 1.765625 -3.875 L 5 -3.875 L 5 -6.5625 L 5.890625 -6.5625 L 5.890625 0 L 5 0 L 5 -3.125 L 1.765625 -3.125 L 1.765625 0 L 0.890625 0 Z M 0.890625 -6.5625 "/>
</symbol>
</g>
</defs>
<g id="surface38813">
<rect x="0" y="0" width="300" height="300" style="fill:rgb(100%,100%,100%);fill-opacity:1;stroke:none;"/>
<path style="fill:none;stroke-width:1.2;stroke-linecap:butt;stroke-linejoin:miter;stroke:rgb(0%,0%,0%);stroke-opacity:1;stroke-miterlimit:10;" d="M 35.25 146.535156 L 40.9375 152.910156 "/>
<path style="fill:none;stroke-width:1.2;stroke-linecap:butt;stroke-linejoin:miter;stroke:rgb(100%,0%,0%);stroke-opacity:1;stroke-miterlimit:10;" d="M 40.9375 152.910156 L 46.625 159.28125 "/>
<path style="fill:none;stroke-width:1.2;stroke-linecap:butt;stroke-linejoin:miter;stroke:rgb(100%,0%,0%);stroke-opacity:1;stroke-miterlimit:10;" d="M 46.625 159.28125 L 54.988281 157.542969 "/>
<path style="fill:none;stroke-width:1.2;stroke-linecap:butt;stroke-linejoin:miter;stroke:rgb(0%,0%,0%);stroke-opacity:1;stroke-miterlimit:10;" d="M 54.988281 157.542969 L 63.351562 155.804688 "/>
<path style=" stroke:none;fill-rule:nonzero;fill:rgb(100%,100%,100%);fill-opacity:1;" d="M 42.625 153.78125 L 50.625 153.78125 L 50.625 164.78125 L 42.625 164.78125 Z M 42.625 153.78125 "/>
<g style="fill:rgb(100%,0%,0%);fill-opacity:1;">
  <use xlink:href="#glyph0-1" x="42.625" y="162.444336"/>
</g>
<path style="fill:none;stroke-width:1.2;stroke-linecap:butt;stroke-linejoin:miter;stroke:rgb(0%,0%,0%);stroke-opacity:1;stroke-miterlimit:10;" d="M 63.351562 155.804688 L 68.703125 139.578125 "/>
<path style="fill:none;stroke-width:1.2;stroke-linecap:butt;stroke-linejoin:miter;stroke:rgb(0%,0%,0%);stroke-opacity:1;stroke-miterlimit:10;" d="M 67.707031 155.441406 L 71.988281 142.460938 "/>
<path style="fill:none;stroke-width:1.2;stroke-linecap:butt;stroke-linejoin:miter;stroke:rgb(0%,0%,0%);stroke-opacity:1;stroke-miterlimit:10;" d="M 74.726562 168.550781 L 63.351562 155.804688 "/>
<path style="fill:none;stroke-width:1.2;stroke-linecap:butt;stroke-linejoin:miter;stroke:rgb(0%,0%,0%);stroke-opacity:1;stroke-miterlimit:10;" d="M 68.703125 139.578125 L 85.429688 136.101562 "/>
<path style="fill:none;stroke-width:1.2;stroke-linecap:butt;stroke-linejoin:miter;stroke:rgb(0%,0%,0%);stroke-opacity:1;stroke-miterlimit:10;" d="M 85.429688 136.101562 L 96.808594 148.847656 "/>
<path style="fill:none;stroke-width:1.2;stroke-linecap:butt;stroke-linejoin:miter;stroke:rgb(0%,0%,0%);stroke-opacity:1;stroke-miterlimit:10;" d="M 83.570312 140.054688 L 92.667969 150.25 "/>
<path style="fill:none;stroke-width:1.2;stroke-linecap:butt;stroke-linejoin:miter;stroke:rgb(0%,0%,0%);stroke-opacity:1;stroke-miterlimit:10;" d="M 96.808594 148.847656 L 91.453125 165.074219 "/>
<path style="fill:none;stroke-width:1.2;stroke-linecap:butt;stroke-linejoin:miter;stroke:rgb(0%,0%,0%);stroke-opacity:1;stroke-miterlimit:10;" d="M 96.808594 148.847656 L 105.171875 147.109375 "/>
<path style="fill:none;stroke-width:1.2;stroke-linecap:butt;stroke-linejoin:miter;stroke:rgb(0%,0%,100%);stroke-opacity:1;stroke-miterlimit:10;" d="M 105.171875 147.109375 L 113.535156 145.371094 "/>
<path style="fill:none;stroke-width:1.2;stroke-linecap:butt;stroke-linejoin:miter;stroke:rgb(0%,0%,0%);stroke-opacity:1;stroke-miterlimit:10;" d="M 91.453125 165.074219 L 74.726562 168.550781 "/>
<path style="fill:none;stroke-width:1.2;stroke-linecap:butt;stroke-linejoin:miter;stroke:rgb(0%,0%,0%);stroke-opacity:1;stroke-miterlimit:10;" d="M 88.964844 161.484375 L 75.582031 164.269531 "/>
<path style="fill:none;stroke-width:1.2;stroke-linecap:butt;stroke-linejoin:miter;stroke:rgb(0%,0%,100%);stroke-opacity:1;stroke-miterlimit:10;" d="M 113.535156 145.371094 L 119.222656 151.746094 "/>
<path style="fill:none;stroke-width:1.2;stroke-linecap:butt;stroke-linejoin:miter;stroke:rgb(0%,0%,0%);stroke-opacity:1;stroke-miterlimit:10;" d="M 119.222656 151.746094 L 124.910156 158.117188 "/>
<path style=" stroke:none;fill-rule:nonzero;fill:rgb(100%,100%,100%);fill-opacity:1;" d="M 106.535156 139.871094 L 120.535156 139.871094 L 120.535156 150.871094 L 106.535156 150.871094 Z M 106.535156 139.871094 "/>
<g style="fill:rgb(0%,0%,100%);fill-opacity:1;">
  <use xlink:href="#glyph0-2" x="106.535156" y="148.53418"/>
  <use xlink:href="#glyph0-3" x="113.512695" y="148.53418"/>
</g>
<path style="fill:none;stroke-width:1.2;stroke-linecap:butt;stroke-linejoin:miter;stroke:rgb(0%,0%,0%);stroke-opacity:1;stroke-miterlimit:10;" d="M 123 157.488281 L 120.324219 165.601562 "/>
<path style="fill:none;stroke-width:1.2;stroke-linecap:butt;stroke-linejoin:miter;stroke:rgb(100%,0%,0%);stroke-opacity:1;stroke-miterlimit:10;" d="M 120.324219 165.601562 L 117.648438 173.714844 "/>
<path style="fill:none;stroke-width:1.2;stroke-linecap:butt;stroke-linejoin:miter;stroke:rgb(0%,0%,0%);stroke-opacity:1;stroke-miterlimit:10;" d="M 126.816406 158.75 L 124.140625 166.859375 "/>
<path style="fill:none;stroke-width:1.2;stroke-linecap:butt;stroke-linejoin:miter;stroke:rgb(100%,0%,0%);stroke-opacity:1;stroke-miterlimit:10;" d="M 124.140625 166.859375 L 121.464844 174.972656 "/>
<path style="fill:none;stroke-width:1.2;stroke-linecap:butt;stroke-linejoin:miter;stroke:rgb(0%,0%,0%);stroke-opacity:1;stroke-miterlimit:10;" d="M 124.910156 158.117188 L 133.273438 156.378906 "/>
<path style="fill:none;stroke-width:1.2;stroke-linecap:butt;stroke-linejoin:miter;stroke:rgb(0%,0%,100%);stroke-opacity:1;stroke-miterlimit:10;" d="M 133.273438 156.378906 L 141.636719 154.640625 "/>
<path style=" stroke:none;fill-rule:nonzero;fill:rgb(100%,100%,100%);fill-opacity:1;" d="M 111.558594 168.84375 L 119.558594 168.84375 L 119.558594 179.84375 L 111.558594 179.84375 Z M 111.558594 168.84375 "/>
<g style="fill:rgb(100%,0%,0%);fill-opacity:1;">
  <use xlink:href="#glyph0-1" x="111.558594" y="177.506836"/>
</g>
<path style="fill:none;stroke-width:1.2;stroke-linecap:butt;stroke-linejoin:miter;stroke:rgb(0%,0%,100%);stroke-opacity:1;stroke-miterlimit:10;" d="M 141.636719 154.640625 L 147.324219 161.015625 "/>
<path style="fill:none;stroke-width:1.2;stroke-linecap:butt;stroke-linejoin:miter;stroke:rgb(0%,0%,0%);stroke-opacity:1;stroke-miterlimit:10;" d="M 147.324219 161.015625 L 153.011719 167.386719 "/>
<path style="fill:none;stroke-width:1.2;stroke-linecap:butt;stroke-linejoin:miter;stroke:rgb(0%,0%,0%);stroke-opacity:1;stroke-miterlimit:10;" d="M 146.988281 138.417969 L 144.3125 146.527344 "/>
<path style="fill:none;stroke-width:1.2;stroke-linecap:butt;stroke-linejoin:miter;stroke:rgb(0%,0%,100%);stroke-opacity:1;stroke-miterlimit:10;" d="M 144.3125 146.527344 L 141.636719 154.640625 "/>
<path style=" stroke:none;fill-rule:nonzero;fill:rgb(100%,100%,100%);fill-opacity:1;" d="M 138.636719 149.140625 L 145.636719 149.140625 L 145.636719 160.140625 L 138.636719 160.140625 Z M 138.636719 149.140625 "/>
<g style="fill:rgb(0%,0%,100%);fill-opacity:1;">
  <use xlink:href="#glyph0-2" x="138.636719" y="157.803711"/>
</g>
<path style="fill:none;stroke-width:1.2;stroke-linecap:butt;stroke-linejoin:miter;stroke:rgb(0%,0%,0%);stroke-opacity:1;stroke-miterlimit:10;" d="M 153.011719 167.386719 L 169.738281 163.910156 "/>
<path style="fill:none;stroke-width:1.2;stroke-linecap:butt;stroke-linejoin:miter;stroke:rgb(0%,0%,0%);stroke-opacity:1;stroke-miterlimit:10;" d="M 169.738281 163.910156 L 175.089844 147.6875 "/>
<path style="fill:none;stroke-width:1.2;stroke-linecap:butt;stroke-linejoin:miter;stroke:rgb(0%,0%,0%);stroke-opacity:1;stroke-miterlimit:10;" d="M 175.089844 147.6875 L 186.464844 160.433594 "/>
<path style="fill:none;stroke-width:1.2;stroke-linecap:butt;stroke-linejoin:miter;stroke:rgb(0%,0%,0%);stroke-opacity:1;stroke-miterlimit:10;" d="M 175.089844 147.6875 L 163.714844 134.9375 "/>
<path style="fill:none;stroke-width:1.2;stroke-linecap:butt;stroke-linejoin:miter;stroke:rgb(0%,0%,0%);stroke-opacity:1;stroke-miterlimit:10;" d="M 180.441406 131.460938 L 175.089844 147.6875 "/>
<path style="fill:none;stroke-width:1.2;stroke-linecap:butt;stroke-linejoin:miter;stroke:rgb(0%,0%,0%);stroke-opacity:1;stroke-miterlimit:10;" d="M 186.464844 160.433594 L 203.191406 156.957031 "/>
<path style="fill:none;stroke-width:1.2;stroke-linecap:butt;stroke-linejoin:miter;stroke:rgb(0%,0%,0%);stroke-opacity:1;stroke-miterlimit:10;" d="M 203.191406 156.957031 L 205.867188 148.84375 "/>
<path style="fill:none;stroke-width:1.2;stroke-linecap:butt;stroke-linejoin:miter;stroke:rgb(0%,0%,100%);stroke-opacity:1;stroke-miterlimit:10;" d="M 205.867188 148.84375 L 208.546875 140.730469 "/>
<path style="fill:none;stroke-width:1.2;stroke-linecap:butt;stroke-linejoin:miter;stroke:rgb(0%,0%,100%);stroke-opacity:1;stroke-miterlimit:10;" d="M 208.546875 140.730469 L 202.855469 134.355469 "/>
<path style="fill:none;stroke-width:1.2;stroke-linecap:butt;stroke-linejoin:miter;stroke:rgb(0%,0%,0%);stroke-opacity:1;stroke-miterlimit:10;" d="M 202.855469 134.355469 L 197.167969 127.984375 "/>
<path style="fill:none;stroke-width:1.2;stroke-linecap:butt;stroke-linejoin:miter;stroke:rgb(0%,0%,100%);stroke-opacity:1;stroke-miterlimit:10;" d="M 208.546875 140.730469 L 216.910156 138.992188 "/>
<path style="fill:none;stroke-width:1.2;stroke-linecap:butt;stroke-linejoin:miter;stroke:rgb(0%,0%,0%);stroke-opacity:1;stroke-miterlimit:10;" d="M 216.910156 138.992188 L 225.273438 137.253906 "/>
<path style=" stroke:none;fill-rule:nonzero;fill:rgb(100%,100%,100%);fill-opacity:1;" d="M 205.546875 135.230469 L 212.546875 135.230469 L 212.546875 146.230469 L 205.546875 146.230469 Z M 205.546875 135.230469 "/>
<g style="fill:rgb(0%,0%,100%);fill-opacity:1;">
  <use xlink:href="#glyph0-2" x="205.546875" y="143.893555"/>
</g>
<path style="fill:none;stroke-width:1.2;stroke-linecap:butt;stroke-linejoin:miter;stroke:rgb(0%,0%,0%);stroke-opacity:1;stroke-miterlimit:10;" d="M 197.167969 127.984375 L 180.441406 131.460938 "/>
<path style="fill:none;stroke-width:1.2;stroke-linecap:butt;stroke-linejoin:miter;stroke:rgb(0%,0%,0%);stroke-opacity:1;stroke-miterlimit:10;" d="M 227.179688 137.882812 L 229.855469 129.769531 "/>
<path style="fill:none;stroke-width:1.2;stroke-linecap:butt;stroke-linejoin:miter;stroke:rgb(100%,0%,0%);stroke-opacity:1;stroke-miterlimit:10;" d="M 229.855469 129.769531 L 232.53125 121.65625 "/>
<path style="fill:none;stroke-width:1.2;stroke-linecap:butt;stroke-linejoin:miter;stroke:rgb(0%,0%,0%);stroke-opacity:1;stroke-miterlimit:10;" d="M 223.363281 136.625 L 226.039062 128.511719 "/>
<path style="fill:none;stroke-width:1.2;stroke-linecap:butt;stroke-linejoin:miter;stroke:rgb(100%,0%,0%);stroke-opacity:1;stroke-miterlimit:10;" d="M 226.039062 128.511719 L 228.714844 120.398438 "/>
<path style="fill:none;stroke-width:1.2;stroke-linecap:butt;stroke-linejoin:miter;stroke:rgb(0%,0%,0%);stroke-opacity:1;stroke-miterlimit:10;" d="M 225.273438 137.253906 L 236.648438 150 "/>
<path style=" stroke:none;fill-rule:nonzero;fill:rgb(100%,100%,100%);fill-opacity:1;" d="M 226.625 115.527344 L 234.625 115.527344 L 234.625 126.527344 L 226.625 126.527344 Z M 226.625 115.527344 "/>
<g style="fill:rgb(100%,0%,0%);fill-opacity:1;">
  <use xlink:href="#glyph0-1" x="226.625" y="124.19043"/>
</g>
<path style="fill:none;stroke-width:1.2;stroke-linecap:butt;stroke-linejoin:miter;stroke:rgb(0%,0%,0%);stroke-opacity:1;stroke-miterlimit:10;" d="M 236.648438 150 L 231.296875 166.226562 "/>
<path style="fill:none;stroke-width:1.2;stroke-linecap:butt;stroke-linejoin:miter;stroke:rgb(0%,0%,0%);stroke-opacity:1;stroke-miterlimit:10;" d="M 239.929688 152.882812 L 235.648438 165.863281 "/>
<path style="fill:none;stroke-width:1.2;stroke-linecap:butt;stroke-linejoin:miter;stroke:rgb(0%,0%,0%);stroke-opacity:1;stroke-miterlimit:10;" d="M 253.375 146.523438 L 236.648438 150 "/>
<path style="fill:none;stroke-width:1.2;stroke-linecap:butt;stroke-linejoin:miter;stroke:rgb(0%,0%,0%);stroke-opacity:1;stroke-miterlimit:10;" d="M 231.296875 166.226562 L 242.671875 178.972656 "/>
<path style="fill:none;stroke-width:1.2;stroke-linecap:butt;stroke-linejoin:miter;stroke:rgb(0%,0%,0%);stroke-opacity:1;stroke-miterlimit:10;" d="M 242.671875 178.972656 L 251.035156 177.234375 "/>
<path style="fill:none;stroke-width:1.2;stroke-linecap:butt;stroke-linejoin:miter;stroke:rgb(0%,0%,100%);stroke-opacity:1;stroke-miterlimit:10;" d="M 251.035156 177.234375 L 259.398438 175.496094 "/>
<path style="fill:none;stroke-width:1.2;stroke-linecap:butt;stroke-linejoin:miter;stroke:rgb(0%,0%,0%);stroke-opacity:1;stroke-miterlimit:10;" d="M 243.527344 174.6875 L 250.214844 173.296875 "/>
<path style="fill:none;stroke-width:1.2;stroke-linecap:butt;stroke-linejoin:miter;stroke:rgb(0%,0%,100%);stroke-opacity:1;stroke-miterlimit:10;" d="M 250.214844 173.296875 L 256.90625 171.90625 "/>
<path style="fill:none;stroke-width:1.2;stroke-linecap:butt;stroke-linejoin:miter;stroke:rgb(0%,0%,100%);stroke-opacity:1;stroke-miterlimit:10;" d="M 259.398438 175.496094 L 262.074219 167.382812 "/>
<path style="fill:none;stroke-width:1.2;stroke-linecap:butt;stroke-linejoin:miter;stroke:rgb(0%,0%,0%);stroke-opacity:1;stroke-miterlimit:10;" d="M 262.074219 167.382812 L 264.75 159.269531 "/>
<path style=" stroke:none;fill-rule:nonzero;fill:rgb(100%,100%,100%);fill-opacity:1;" d="M 256.398438 169.996094 L 263.398438 169.996094 L 263.398438 180.996094 L 256.398438 180.996094 Z M 256.398438 169.996094 "/>
<g style="fill:rgb(0%,0%,100%);fill-opacity:1;">
  <use xlink:href="#glyph0-2" x="256.398438" y="178.65918"/>
</g>
<path style="fill:none;stroke-width:1.2;stroke-linecap:butt;stroke-linejoin:miter;stroke:rgb(0%,0%,0%);stroke-opacity:1;stroke-miterlimit:10;" d="M 264.75 159.269531 L 253.375 146.523438 "/>
<path style="fill:none;stroke-width:1.2;stroke-linecap:butt;stroke-linejoin:miter;stroke:rgb(0%,0%,0%);stroke-opacity:1;stroke-miterlimit:10;" d="M 260.613281 160.671875 L 251.511719 150.472656 "/>
<path style="fill:none;stroke-width:1.2;stroke-linecap:butt;stroke-linejoin:miter;stroke:rgb(0%,0%,0%);stroke-opacity:1;stroke-miterlimit:10;" d="M 163.714844 134.9375 L 146.988281 138.417969 "/>
</g>
</svg>

<svg xmlns="http://www.w3.org/2000/svg" xmlns:xlink="http://www.w3.org/1999/xlink" width="300pt" height="300pt" viewBox="0 0 300 300"><defs><symbol overflow="visible"><path d="M.453 1.594v-7.938h4.5v7.938zm.5-.5h3.5v-6.938h-3.5zm0 0"/></symbol><symbol overflow="visible" id="a"><path d="M3.547-5.953c-.65 0-1.164.242-1.547.72-.375.48-.563 1.13-.563 1.952 0 .835.188 1.49.563 1.967.383.48.898.72 1.547.72.644 0 1.156-.24 1.53-.72.376-.476.564-1.132.564-1.968 0-.822-.187-1.474-.562-1.954-.375-.477-.887-.72-1.53-.72zm0-.734c.914 0 1.648.312 2.203.937.55.617.828 1.438.828 2.47 0 1.042-.277 1.87-.828 2.483-.555.617-1.29.922-2.203.922-.93 0-1.668-.305-2.22-.922C.774-1.41.5-2.237.5-3.28c0-1.033.273-1.853.828-2.47.55-.625 1.29-.938 2.22-.938zm0 0"/></symbol><symbol overflow="visible" id="b"><path d="M.89-6.563H2.08l2.906 5.485v-5.484h.86V0H4.656L1.75-5.484V0H.89zm0 0"/></symbol><symbol overflow="visible" id="c"><path d="M.89-6.563h.876v2.688H5v-2.688h.89V0H5v-3.125H1.766V0H.89zm0 0"/></symbol></defs><g><path fill="#fff" d="M0 0h300v300H0z"/><path d="M35.25 146.535l5.688 6.375" stroke-width="1.2" stroke="#000" stroke-miterlimit="10" fill="none"/><path d="M40.938 152.91l5.687 6.37M46.625 159.28l8.363-1.737" stroke-width="1.2" stroke="#f00" stroke-miterlimit="10" fill="none"/><path d="M54.988 157.543l8.364-1.738" stroke-width="1.2" stroke="#000" stroke-miterlimit="10" fill="none"/><path d="M42.625 153.78h8v11h-8zm0 0" fill="#fff"/><use xlink:href="#a" x="42.625" y="162.444" fill="#f00"/><path d="M63.352 155.805l5.35-16.227M67.707 155.44l4.28-12.98M74.727 168.55l-11.375-12.745M68.703 139.578l16.727-3.476M85.43 136.102l11.38 12.746M83.57 140.055l9.098 10.195M96.81 148.848l-5.357 16.226M96.81 148.848l8.362-1.74" stroke-width="1.2" stroke="#000" stroke-miterlimit="10" fill="none"/><path d="M105.172 147.11l8.363-1.74" stroke-width="1.2" stroke="#00f" stroke-miterlimit="10" fill="none"/><path d="M91.453 165.074l-16.726 3.477M88.965 161.484l-13.383 2.786" stroke-width="1.2" stroke="#000" stroke-miterlimit="10" fill="none"/><path d="M113.535 145.37l5.688 6.376" stroke-width="1.2" stroke="#00f" stroke-miterlimit="10" fill="none"/><path d="M119.223 151.746l5.687 6.37" stroke-width="1.2" stroke="#000" stroke-miterlimit="10" fill="none"/><path d="M106.535 139.87h14v11h-14zm0 0" fill="#fff"/><g fill="#00f"><use xlink:href="#b" x="106.535" y="148.534"/><use xlink:href="#c" x="113.513" y="148.534"/></g><path d="M123 157.488l-2.676 8.114" stroke-width="1.2" stroke="#000" stroke-miterlimit="10" fill="none"/><path d="M120.324 165.602l-2.676 8.113" stroke-width="1.2" stroke="#f00" stroke-miterlimit="10" fill="none"/><path d="M126.816 158.75l-2.675 8.11" stroke-width="1.2" stroke="#000" stroke-miterlimit="10" fill="none"/><path d="M124.14 166.86l-2.675 8.113" stroke-width="1.2" stroke="#f00" stroke-miterlimit="10" fill="none"/><path d="M124.91 158.117l8.363-1.738" stroke-width="1.2" stroke="#000" stroke-miterlimit="10" fill="none"/><path d="M133.273 156.38l8.364-1.74" stroke-width="1.2" stroke="#00f" stroke-miterlimit="10" fill="none"/><path d="M111.56 168.844h8v11h-8zm0 0" fill="#fff"/><use xlink:href="#a" x="111.559" y="177.507" fill="#f00"/><path d="M141.637 154.64l5.687 6.376" stroke-width="1.2" stroke="#00f" stroke-miterlimit="10" fill="none"/><path d="M147.324 161.016l5.688 6.37M146.988 138.418l-2.675 8.11" stroke-width="1.2" stroke="#000" stroke-miterlimit="10" fill="none"/><path d="M144.313 146.527l-2.676 8.114" stroke-width="1.2" stroke="#00f" stroke-miterlimit="10" fill="none"/><path d="M138.637 149.14h7v11h-7zm0 0" fill="#fff"/><use xlink:href="#b" x="138.637" y="157.804" fill="#00f"/><path d="M153.012 167.387l16.726-3.477M169.738 163.91l5.352-16.222M175.09 147.688l11.375 12.746M175.09 147.688l-11.375-12.75M180.44 131.46l-5.35 16.227M186.465 160.434l16.726-3.477M203.19 156.957l2.677-8.113" stroke-width="1.2" stroke="#000" stroke-miterlimit="10" fill="none"/><path d="M205.867 148.844l2.68-8.114M208.547 140.73l-5.692-6.375" stroke-width="1.2" stroke="#00f" stroke-miterlimit="10" fill="none"/><path d="M202.855 134.355l-5.687-6.37" stroke-width="1.2" stroke="#000" stroke-miterlimit="10" fill="none"/><path d="M208.547 140.73l8.363-1.738" stroke-width="1.2" stroke="#00f" stroke-miterlimit="10" fill="none"/><path d="M216.91 138.992l8.363-1.738" stroke-width="1.2" stroke="#000" stroke-miterlimit="10" fill="none"/><path d="M205.547 135.23h7v11h-7zm0 0" fill="#fff"/><use xlink:href="#b" x="205.547" y="143.894" fill="#00f"/><path d="M197.168 127.984l-16.727 3.477M227.18 137.883l2.675-8.113" stroke-width="1.2" stroke="#000" stroke-miterlimit="10" fill="none"/><path d="M229.855 129.77l2.676-8.114" stroke-width="1.2" stroke="#f00" stroke-miterlimit="10" fill="none"/><path d="M223.363 136.625l2.676-8.113" stroke-width="1.2" stroke="#000" stroke-miterlimit="10" fill="none"/><path d="M226.04 128.512l2.675-8.114" stroke-width="1.2" stroke="#f00" stroke-miterlimit="10" fill="none"/><path d="M225.273 137.254L236.648 150" stroke-width="1.2" stroke="#000" stroke-miterlimit="10" fill="none"/><path d="M226.625 115.527h8v11h-8zm0 0" fill="#fff"/><use xlink:href="#a" x="226.625" y="124.19" fill="#f00"/><path d="M236.648 150l-5.35 16.227M239.93 152.883l-4.282 12.98M253.375 146.523L236.648 150M231.297 166.227l11.375 12.746M242.672 178.973l8.363-1.74" stroke-width="1.2" stroke="#000" stroke-miterlimit="10" fill="none"/><path d="M251.035 177.234l8.363-1.738" stroke-width="1.2" stroke="#00f" stroke-miterlimit="10" fill="none"/><path d="M243.527 174.688l6.688-1.39" stroke-width="1.2" stroke="#000" stroke-miterlimit="10" fill="none"/><path d="M250.215 173.297l6.69-1.39M259.398 175.496l2.676-8.113" stroke-width="1.2" stroke="#00f" stroke-miterlimit="10" fill="none"/><path d="M262.074 167.383l2.676-8.113" stroke-width="1.2" stroke="#000" stroke-miterlimit="10" fill="none"/><path d="M256.398 169.996h7v11h-7zm0 0" fill="#fff"/><use xlink:href="#b" x="256.398" y="178.659" fill="#00f"/><path d="M264.75 159.27l-11.375-12.747M260.613 160.672l-9.1-10.2M163.715 134.938l-16.727 3.48" stroke-width="1.2" stroke="#000" stroke-miterlimit="10" fill="none"/></g></svg>
